assets/post/images/tree8.svg

<svg xmlns="http://www.w3.org/2000/svg" width="1821" height="736" overflow="hidden"><defs><clipPath id="a"><path d="M2193 1696h1821v736H2193z"/></clipPath></defs><g clip-path="url(#a)" transform="translate(-2193 -1696)"><path fill="#f0835c" fill-rule="evenodd" stroke="#000" stroke-miterlimit="8" stroke-width="9.167" d="M2447.5 1780.5c0-43.63 35.37-79 79-79s79 35.37 79 79-35.37 79-79 79-79-35.37-79-79Z"/><text font-family="Courier New,Courier New_MSFontService,sans-serif" font-size="83" font-weight="700" transform="translate(2501.48 1804)">G</text><path fill="#f8ccb9" fill-rule="evenodd" stroke="#000" stroke-miterlimit="8" stroke-width="9.167" d="M2197.5 2030.5c0-43.63 35.37-79 79-79s79 35.37 79 79-35.37 79-79 79-79-35.37-79-79Z"/><text font-family="Courier New,Courier New_MSFontService,sans-serif" font-size="83" font-weight="700" transform="translate(2251.44 2054)">U</text><path fill="#f8ccb9" fill-rule="evenodd" stroke="red" stroke-miterlimit="8" stroke-width="9.167" d="M2712.5 2030.5c0-43.63 35.37-79 79-79s79 35.37 79 79-35.37 79-79 79-79-35.37-79-79Z"/><text fill="red" font-family="Courier New,Courier New_MSFontService,sans-serif" font-size="83" font-weight="700" transform="translate(2766.02 2054)">P</text><path fill="none" stroke="#000" stroke-miterlimit="8" stroke-width="9.167" d="m2332.5 1974.89 138.445-138.393m264.495 138.393L2582.5 1836.5"/><path fill="#fdefe8" fill-rule="evenodd" stroke="red" stroke-miterlimit="8" stroke-width="9.167" d="M2558.5 2332.5c0-43.63 35.37-79 79-79s79 35.37 79 79-35.37 79-79 79-79-35.37-79-79Z"/><text fill="red" font-family="Courier New,Courier New_MSFontService,sans-serif" font-size="83" font-weight="700" transform="translate(2612.16 2356)">x</text><path fill="none" stroke="#000" stroke-miterlimit="8" stroke-width="9.167" d="m2637.5 2253.88 102.026-168.381"/><path fill="#f0835c" fill-rule="evenodd" stroke="#000" stroke-miterlimit="8" stroke-width="9.167" d="M3448.5 1779.5c0-43.63 35.15-79 78.5-79s78.5 35.37 78.5 79-35.15 79-78.5 79-78.5-35.37-78.5-79Z"/><text font-family="Courier New,Courier New_MSFontService,sans-serif" font-size="83" font-weight="700" transform="translate(3501.92 1803)">G</text><path fill="#f8ccb9" fill-rule="evenodd" stroke="#000" stroke-miterlimit="8" stroke-width="9.167" d="M3198.5 2029.5c0-43.63 35.15-79 78.5-79s78.5 35.37 78.5 79-35.15 79-78.5 79-78.5-35.37-78.5-79Z"/><text font-family="Courier New,Courier New_MSFontService,sans-serif" font-size="83" font-weight="700" transform="translate(3251.88 2053)">U</text><path fill="#f8ccb9" fill-rule="evenodd" stroke="red" stroke-miterlimit="8" stroke-width="9.167" d="M3712.5 2029.5c0-43.63 35.37-79 79-79s79 35.37 79 79-35.37 79-79 79-79-35.37-79-79Z"/><text fill="red" font-family="Courier New,Courier New_MSFontService,sans-serif" font-size="83" font-weight="700" transform="translate(3766.46 2053)">P</text><path fill="none" stroke="#000" stroke-miterlimit="8" stroke-width="9.167" d="m3332.5 1973.89 138.445-138.393m264.495 138.393L3582.5 1835.5"/><path fill="#fdefe8" fill-rule="evenodd" stroke="red" stroke-miterlimit="8" stroke-width="9.167" d="M3851.5 2331.5c0-43.63 35.37-79 79-79s79 35.37 79 79-35.37 79-79 79-79-35.37-79-79Z"/><text fill="red" font-family="Courier New,Courier New_MSFontService,sans-serif" font-size="83" font-weight="700" transform="translate(3905.14 2355)">x</text><path fill="none" stroke="#000" stroke-miterlimit="8" stroke-width="9.167" d="m3930.41 2252.88-78.91-168.38"/><path fill="#d74514" fill-rule="evenodd" d="M2951 1972.5h90V1916l90 113-90 113v-56.5h-90Z"/></g></svg>

<svg width="1821" height="736" xmlns="http://www.w3.org/2000/svg" xmlns:xlink="http://www.w3.org/1999/xlink" overflow="hidden"><defs><clipPath id="clip0"><rect x="2193" y="1696" width="1821" height="736"/></clipPath></defs><g clip-path="url(#clip0)" transform="translate(-2193 -1696)"><path d="M2447.5 1780.5C2447.5 1736.87 2482.87 1701.5 2526.5 1701.5 2570.13 1701.5 2605.5 1736.87 2605.5 1780.5 2605.5 1824.13 2570.13 1859.5 2526.5 1859.5 2482.87 1859.5 2447.5 1824.13 2447.5 1780.5Z" stroke="#000000" stroke-width="9.16667" stroke-miterlimit="8" fill="#F0835C" fill-rule="evenodd"/><text font-family="Courier New,Courier New_MSFontService,sans-serif" font-weight="700" font-size="83" transform="matrix(1 0 0 1 2501.48 1804)">G</text><path d="M2197.5 2030.5C2197.5 1986.87 2232.87 1951.5 2276.5 1951.5 2320.13 1951.5 2355.5 1986.87 2355.5 2030.5 2355.5 2074.13 2320.13 2109.5 2276.5 2109.5 2232.87 2109.5 2197.5 2074.13 2197.5 2030.5Z" stroke="#000000" stroke-width="9.16667" stroke-miterlimit="8" fill="#F8CCB9" fill-rule="evenodd"/><text font-family="Courier New,Courier New_MSFontService,sans-serif" font-weight="700" font-size="83" transform="matrix(1 0 0 1 2251.44 2054)">U</text><path d="M2712.5 2030.5C2712.5 1986.87 2747.87 1951.5 2791.5 1951.5 2835.13 1951.5 2870.5 1986.87 2870.5 2030.5 2870.5 2074.13 2835.13 2109.5 2791.5 2109.5 2747.87 2109.5 2712.5 2074.13 2712.5 2030.5Z" stroke="#FF0000" stroke-width="9.16667" stroke-miterlimit="8" fill="#F8CCB9" fill-rule="evenodd"/><text fill="#FF0000" font-family="Courier New,Courier New_MSFontService,sans-serif" font-weight="700" font-size="83" transform="matrix(1 0 0 1 2766.02 2054)">P</text><path d="M0 0 138.445 138.393" stroke="#000000" stroke-width="9.16667" stroke-miterlimit="8" fill="none" fill-rule="evenodd" transform="matrix(1 0 0 -1 2332.5 1974.89)"/><path d="M2735.44 1974.89 2582.5 1836.5" stroke="#000000" stroke-width="9.16667" stroke-miterlimit="8" fill="none" fill-rule="evenodd"/><path d="M2558.5 2332.5C2558.5 2288.87 2593.87 2253.5 2637.5 2253.5 2681.13 2253.5 2716.5 2288.87 2716.5 2332.5 2716.5 2376.13 2681.13 2411.5 2637.5 2411.5 2593.87 2411.5 2558.5 2376.13 2558.5 2332.5Z" stroke="#FF0000" stroke-width="9.16667" stroke-miterlimit="8" fill="#FDEFE8" fill-rule="evenodd"/><text fill="#FF0000" font-family="Courier New,Courier New_MSFontService,sans-serif" font-weight="700" font-size="83" transform="matrix(1 0 0 1 2612.16 2356)">x</text><path d="M0 0 102.026 168.381" stroke="#000000" stroke-width="9.16667" stroke-miterlimit="8" fill="none" fill-rule="evenodd" transform="matrix(1 0 0 -1 2637.5 2253.88)"/><path d="M3448.5 1779.5C3448.5 1735.87 3483.65 1700.5 3527 1700.5 3570.35 1700.5 3605.5 1735.87 3605.5 1779.5 3605.5 1823.13 3570.35 1858.5 3527 1858.5 3483.65 1858.5 3448.5 1823.13 3448.5 1779.5Z" stroke="#000000" stroke-width="9.16667" stroke-miterlimit="8" fill="#F0835C" fill-rule="evenodd"/><text font-family="Courier New,Courier New_MSFontService,sans-serif" font-weight="700" font-size="83" transform="matrix(1 0 0 1 3501.92 1803)">G</text><path d="M3198.5 2029.5C3198.5 1985.87 3233.65 1950.5 3277 1950.5 3320.35 1950.5 3355.5 1985.87 3355.5 2029.5 3355.5 2073.13 3320.35 2108.5 3277 2108.5 3233.65 2108.5 3198.5 2073.13 3198.5 2029.5Z" stroke="#000000" stroke-width="9.16667" stroke-miterlimit="8" fill="#F8CCB9" fill-rule="evenodd"/><text font-family="Courier New,Courier New_MSFontService,sans-serif" font-weight="700" font-size="83" transform="matrix(1 0 0 1 3251.88 2053)">U</text><path d="M3712.5 2029.5C3712.5 1985.87 3747.87 1950.5 3791.5 1950.5 3835.13 1950.5 3870.5 1985.87 3870.5 2029.5 3870.5 2073.13 3835.13 2108.5 3791.5 2108.5 3747.87 2108.5 3712.5 2073.13 3712.5 2029.5Z" stroke="#FF0000" stroke-width="9.16667" stroke-miterlimit="8" fill="#F8CCB9" fill-rule="evenodd"/><text fill="#FF0000" font-family="Courier New,Courier New_MSFontService,sans-serif" font-weight="700" font-size="83" transform="matrix(1 0 0 1 3766.46 2053)">P</text><path d="M0 0 138.445 138.393" stroke="#000000" stroke-width="9.16667" stroke-miterlimit="8" fill="none" fill-rule="evenodd" transform="matrix(1 0 0 -1 3332.5 1973.89)"/><path d="M3735.44 1973.89 3582.5 1835.5" stroke="#000000" stroke-width="9.16667" stroke-miterlimit="8" fill="none" fill-rule="evenodd"/><path d="M3851.5 2331.5C3851.5 2287.87 3886.87 2252.5 3930.5 2252.5 3974.13 2252.5 4009.5 2287.87 4009.5 2331.5 4009.5 2375.13 3974.13 2410.5 3930.5 2410.5 3886.87 2410.5 3851.5 2375.13 3851.5 2331.5Z" stroke="#FF0000" stroke-width="9.16667" stroke-miterlimit="8" fill="#FDEFE8" fill-rule="evenodd"/><text fill="#FF0000" font-family="Courier New,Courier New_MSFontService,sans-serif" font-weight="700" font-size="83" transform="matrix(1 0 0 1 3905.14 2355)">x</text><path d="M3930.41 2252.88 3851.5 2084.5" stroke="#000000" stroke-width="9.16667" stroke-miterlimit="8" fill="none" fill-rule="evenodd"/><path d="M2951 1972.5 3041 1972.5 3041 1916 3131 2029 3041 2142 3041 2085.5 2951 2085.5Z" fill="#D74514" fill-rule="evenodd"/></g></svg>
